src/icons/blockchains/dark/near.svg

<svg width="24" height="24" viewBox="0 0 24 24" fill="none" xmlns="http://www.w3.org/2000/svg">
  <rect width="24" height="24" rx="12" fill="#080530" />
  <mask
    id="mask0_1131_18489"
    style="mask-type: alpha"
    maskUnits="userSpaceOnUse"
    x="4"
    y="4"
    width="16"
    height="16"
  >
    <rect x="4" y="4" width="16" height="16" fill="#D9D9D9" />
  </mask>
  <g mask="url(#mask0_1131_18489)">
    <path
      d="M16.0708 5.84861L13.2441 10.0975C13.1375 10.2397 13.173 10.4175 13.2975 10.5242C13.4219 10.6131 13.5819 10.5953 13.6886 10.4886L16.4619 8.03527C16.5153 7.98194 16.5864 7.98194 16.6041 8.03527C16.6219 8.05305 16.6397 8.08861 16.6397 8.10638V15.7508C16.6397 15.8042 16.5864 15.8575 16.5153 15.8575C16.4797 15.8575 16.4619 15.8397 16.4264 15.8042L8.05303 5.63527C7.80414 5.35083 7.41303 5.15527 6.96859 5.15527H6.68414C5.88414 5.15527 5.24414 5.81305 5.24414 6.61305V17.3686C5.24414 18.1686 5.88414 18.8264 6.68414 18.8264C7.18192 18.8264 7.64414 18.5597 7.91081 18.1331L10.7375 13.9019C10.8441 13.7597 10.8086 13.5819 10.6841 13.4753C10.5597 13.3864 10.3997 13.4042 10.293 13.5108L7.50192 15.9286C7.44859 15.9819 7.37747 15.9819 7.3597 15.9286C7.34192 15.9108 7.32414 15.8753 7.32414 15.8575V8.21305C7.32414 8.15972 7.37747 8.10638 7.44859 8.10638C7.48414 8.10638 7.50192 8.12416 7.53747 8.15972L15.9286 18.3464C16.1953 18.6842 16.6041 18.8619 17.0308 18.8619H17.333C18.133 18.8619 18.7553 18.2042 18.7553 17.4042V6.61305C18.7375 5.81305 18.0975 5.15527 17.2975 5.15527C16.7997 5.15527 16.3375 5.42194 16.0708 5.84861Z"
      fill="white"
    />
  </g>
</svg>

<svg
  xmlns="http://www.w3.org/2000/svg"
  width="24"
  height="24"
  fill="none"
  xmlns:v="https://vecta.io/nano"
>
  <rect width="24" height="24" rx="12" fill="#080530" />
  <mask id="A" maskUnits="userSpaceOnUse" x="4" y="4" width="16" height="16" mask-type="alpha">
    <path fill="#d9d9d9" d="M4 4h16v16H4z" />
  </mask>
  <g mask="url(#A)">
    <path
      d="M16.071 5.849l-2.827 4.249c-.107.142-.071.32.053.427.124.089.284.071.391-.036l2.773-2.453c.053-.053.125-.053.142 0 .018.018.036.053.036.071v7.644c0 .053-.053.107-.124.107-.036 0-.053-.018-.089-.053L8.053 5.635c-.249-.284-.64-.48-1.084-.48h-.284a1.45 1.45 0 0 0-1.44 1.458v10.756a1.45 1.45 0 0 0 1.44 1.458c.498 0 .96-.267 1.227-.693l2.827-4.231c.107-.142.071-.32-.053-.427-.124-.089-.284-.071-.391.035l-2.791 2.418c-.053.053-.124.053-.142 0-.018-.018-.036-.053-.036-.071V8.213c0-.053.053-.107.124-.107.036 0 .053.018.089.053l8.391 10.187a1.39 1.39 0 0 0 1.102.515h.302c.8 0 1.422-.658 1.422-1.458V6.613c-.018-.8-.658-1.458-1.458-1.458-.498 0-.96.267-1.227.693z"
      fill="#fff"
    />
  </g>
</svg>
